**kern	**kern	**kern
*staff3	*staff2	*staff1
*tb16	*tb16	*tb16
=1-	=1-	=1-
*clefF4	*clefG2	*clefG2
*k[f#]	*k[f#]	*k[f#]
*met(c)	*met(c)	*met(c)
*M4/4	*M4/4	*M4/4
8r	8d/	8d/
4G\	4B/	4g/
4G\	4d/	4b\
8r	8r	8r
4r	4r	4r
=2	=2	=2
4.C/	4.c/	4.e/
8BB/	8d/	8e/
2AA/	8c/L	8a/
.	8c/	8a/
.	8B/	8b/
.	8A/J	8cc/
=3	=3	=3
2D\	4B/	4g/
.	4A/	8f#/L
.	.	8a/J
4r	4r	4cc/
4c\	4d/	8a/L
.	.	8f#/J
=4	=4	=4
!!linebreak:original
4B\	4.d/	4a/
4BB/	.	8g/
.	8d/	8g/
4C/	8g/L	8ee\
.	8g/	8ee\
4D\	8f#/	8dd\
.	8a/J	8cc\
=5	=5	=5
4GG/	4a/	4cc\
4r	8g/L	8b\
.	8f#/J	8dd/
2r	4.e/	4dd/
.	.	(8cc#\
.	8d/	8b/
=6	=6	=6
!!linebreak:original
2r	8c#/L	8a/)
.	8A#/	8g/
.	8B/	8f#/L
.	8G/J	8b/J
4AA/ 4F#/	4An/	(4d/
4AA\ 4G\	4A/	8f#/)
.	.	8e/
=7	=7	=7
8D\L	2r	4d/
8d\	.	.
8A\	.	8r
8F#\J	.	8a/
4D\	4f#/	4dd/
4BB/	4fn/	4dd/
=8	=8	=8
4.E\	4.e/	4dd/
.	.	8b/L
8d\	4e/	8g#/J
8c\L	.	8a/
8d\	8e/L	8g#/
8c\	8e/	8a/
8B\J	8g#/J	8b/
=9	=9	=9
!!linebreak:original
4A\	8g#/L	8b\L
.	8a/J	8cc\J
4AA/	4a/	8cc\
.	.	8a\
4C/	4e/	4ee/
4C/	4f#/	4ee/
=10	=10	=10
2BB/	2g/	(8dd\L
.	.	[8gg\J
.	.	8gg\])
.	.	16ff#\LL
.	.	16ee\JJ
4AA/	4g/	8dd\
.	.	8dd#\
4D\	4f#/	8ee\
.	.	8cc/
=11	=11	=11
!!linebreak:original
2GG/	8f#/L	8cc/L
.	8g/J	8b/J
.	4g/	8b/
.	.	8b\
4.C/	4.e/	8ee\
.	.	8cc\
.	.	8b\
8c\	8e/	8a/
=12	=12	=12
8d\	4fn/	8g#/
8r	.	8r
8c\	4e/	8a/
8r	.	8r
8B\	4d/	8b\
8r	.	8r
4A\	4c/	8cc\
.	.	8r
=13	=13	=13
!!linebreak:original
4.C/	4.A/	4g/
.	.	8f#/
8BB/	8d/	8dd\
2D\	2fn/	8cc\
.	.	8b\
.	.	8a/L
.	.	8g/J
=14	=14	=14
4C/	4e/	16b/LL
.	.	16a/
.	.	16g#/
.	.	16a/JJ
8BB/L	8d/L	8b/L
8AA/J	8c/J	8cc/J
4D\	4d/	4gn/
4D\	4d/	8b/L
.	.	8a/J
=15	=15	=15
4GG/	4B/	4g/
4r	4r	4r
==	==	==
*-	*-	*-
